X:1
T:Boring For Oil
M:3/8
L:1/8
K:G
 z2 G| BG E/2E/2| EDD| EGG| G3| z2 G| GBd| ede| dBG| A3| z2 G| GBd|\
 edB| BAG| A3| z2 G/2G/2| GED| DB,D| EGE| G2 z|
